X: 29694
T: Nous Voici Dans La Ville
R: waltz
M: 3/4
K: Aminor
A2|e3 e Bc|d2 d2 A2|c3 d Bc|A4 A2|e3 e Bc|d2 d2 A2|c3 d Bc|A4 A2|
B3 B AB|c2 B2 c2|d3 c BA|A2 B2 A2|B3 B AB|c2 B2 d2|cB A2 G2|HA4||

